X: 48
T: Health to the Ladies
T: Sweet Biddy Daly
M: 6/8
L: 1/8
R: Jig
K: A
f|ecA BAF|AFE EFA|Bdc BAB|cBB B2f|
ecA BAF|AFE EFA|Bdc BAB|cAA A2 :|
cee dff|cee ecA|cee dff|ecA B2A|
cee dff|cee ecA|Bdc BAB|cAA A2 :|
